src/assets/filled/GalleryFavorite.svg

<svg width="24" height="24" viewBox="0 0 24 24"  xmlns="http://www.w3.org/2000/svg">
<path d="M9.00012 10.3801C10.3146 10.3801 11.3801 9.31456 11.3801 8.00012C11.3801 6.68568 10.3146 5.62012 9.00012 5.62012C7.68568 5.62012 6.62012 6.68568 6.62012 8.00012C6.62012 9.31456 7.68568 10.3801 9.00012 10.3801Z" />
<path d="M20.97 8H20.5V12.61L20.37 12.5C19.59 11.83 18.33 11.83 17.55 12.5L13.39 16.07C12.61 16.74 11.35 16.74 10.57 16.07L10.23 15.79C9.52 15.17 8.39 15.11 7.59 15.65L3.85 18.16C3.63 17.6 3.5 16.95 3.5 16.19V7.81C3.5 4.99 4.99 3.5 7.81 3.5H16V3.03C16 2.63 16.07 2.29 16.23 2H7.81C4.17 2 2 4.17 2 7.81V16.19C2 17.28 2.19 18.23 2.56 19.03C3.42 20.93 5.26 22 7.81 22H16.19C19.83 22 22 19.83 22 16.19V7.77C21.71 7.93 21.37 8 20.97 8Z" />
<path d="M20.97 1H18.03C17.16 1 16.52 1.36 16.23 2C16.07 2.29 16 2.63 16 3.03V3.5V5.97C16 7.24 16.76 8 18.03 8H20.5H20.97C21.37 8 21.71 7.93 22 7.77C22.64 7.48 23 6.84 23 5.97V3.03C23 1.76 22.24 1 20.97 1ZM20.3 6.21C19.98 6.4 19.67 6.5 19.5 6.5C19.05 6.5 17.77 5.88 17.39 4.68C17.33 4.5 17.3 4.3 17.3 4.11C17.3 3.94 17.32 3.77 17.37 3.61C17.5 3.14 17.81 2.73 18.33 2.56C18.53 2.5 18.74 2.48 18.93 2.52C19.13 2.55 19.32 2.63 19.49 2.76C19.81 2.51 20.25 2.43 20.67 2.56C21.58 2.86 21.87 3.89 21.61 4.68C21.57 4.8 21.52 4.92 21.46 5.03C21.19 5.57 20.73 5.97 20.3 6.21Z" />
</svg>

<?xml version="1.0" encoding="UTF-8"?>
<svg width="24" height="24" viewBox="0 0 24 24" xmlns="http://www.w3.org/2000/svg">
 <path d="m9.0001 10.38c1.3145 0 2.38-1.0655 2.38-2.38s-1.0655-2.38-2.38-2.38c-1.3144 0-2.38 1.0656-2.38 2.38s1.0656 2.38 2.38 2.38z"/>
 <path d="m20.97 8h-0.47v4.61l-0.13-0.11c-0.78-0.67-2.04-0.67-2.82 0l-4.16 3.57c-0.78 0.67-2.04 0.67-2.82 0l-0.34-0.28c-0.71-0.62-1.84-0.68-2.64-0.14l-3.74 2.51c-0.22-0.56-0.35-1.21-0.35-1.97v-8.38c0-2.82 1.49-4.31 4.31-4.31h8.19v-0.47c0-0.4 0.07-0.74 0.23-1.03h-8.42c-3.64 0-5.81 2.17-5.81 5.81v8.38c0 1.09 0.19 2.04 0.56 2.84 0.86 1.9 2.7 2.97 5.25 2.97h8.38c3.64 0 5.81-2.17 5.81-5.81v-8.42c-0.29 0.16-0.63 0.23-1.03 0.23z"/>
 <path d="m20.97 1h-2.94c-0.87 0-1.51 0.36-1.8 1-0.16 0.29-0.23 0.63-0.23 1.03v2.94c0 1.27 0.76 2.03 2.03 2.03h2.94c0.4 0 0.74-0.07 1.03-0.23 0.64-0.29 1-0.93 1-1.8v-2.94c0-1.27-0.76-2.03-2.03-2.03zm-0.67 5.21c-0.32 0.19-0.63 0.29-0.8 0.29-0.45 0-1.73-0.62-2.11-1.82-0.06-0.18-0.09-0.38-0.09-0.57 0-0.17 0.02-0.34 0.07-0.5 0.13-0.47 0.44-0.88 0.96-1.05 0.2-0.06 0.41-0.08 0.6-0.04 0.2 0.03 0.39 0.11 0.56 0.24 0.32-0.25 0.76-0.33 1.18-0.2 0.91 0.3 1.2 1.33 0.94 2.12-0.04 0.12-0.09 0.24-0.15 0.35-0.27 0.54-0.73 0.94-1.16 1.18z"/>
</svg>
